X: 5508
T: Buntata 's Sgadan
R: reel
M: 4/4
K: Amajor
A2cB ceae|f2ae cBBc|A2cB ceae|f2ae cAAB|
A2cB ceae|f2ae cBBc|A2cB ceae|f2ae cAA2|
f2cf efce|feae cBBe|f2cf efce|feae cAA2|
f2cf efce|feae cBBc|A2BA ceae|feae ceBc||

